material/.icons/material/soldering-iron.svg

<svg xmlns="http://www.w3.org/2000/svg" viewBox="0 0 24 24"><path d="M4.86 4.03L2.03 6.86l3.18 3.18v2.83l1.42 1.41 5.65-5.65-1.41-1.42H8.04L4.86 4.03M17 6v1.5c1 0 1.85.83 1.85 1.85S18 11.2 17 11.2v1.5c2.24 0 4 1.83 4 4.07V21h1.5v-4.24c0-2.22-1.28-4.14-3.15-5.03.62-.61 1-1.45 1-2.38C20.35 7.5 18.85 6 17 6m-5.07 5.1L9.1 13.93l4.95 4.95.71-.71 2.12 2.12L19 21l-.71-2.12-2.12-2.12.71-.71-4.95-4.95z"/></svg>

<?xml version="1.0" encoding="UTF-8"?><!DOCTYPE svg PUBLIC "-//W3C//DTD SVG 1.1//EN" "http://www.w3.org/Graphics/SVG/1.1/DTD/svg11.dtd"><svg xmlns="http://www.w3.org/2000/svg" xmlns:xlink="http://www.w3.org/1999/xlink" version="1.1" id="mdi-soldering-iron" width="24" height="24" viewBox="0 0 24 24"><path d="M4.86 4.03L2.03 6.86L5.21 10.04V12.87L6.63 14.28L12.28 8.63L10.87 7.21H8.04L4.86 4.03M17 6V7.5C18 7.5 18.85 8.33 18.85 9.35C18.85 10.37 18 11.2 17 11.2V12.7C19.24 12.7 21 14.53 21 16.77V21H22.5V16.76C22.5 14.54 21.22 12.62 19.35 11.73C19.97 11.12 20.35 10.28 20.35 9.35C20.35 7.5 18.85 6 17 6M11.93 11.1L9.1 13.93L14.05 18.88L14.76 18.17L16.88 20.29L19 21L18.29 18.88L16.17 16.76L16.88 16.05L11.93 11.1Z" /></svg>
